X: 2
T: The Pockar
C: Martin Donohue
M: 4/4
L: 1/8
R: hornpipe 
K: D Major
|: Ac |
d2 Ac d2 Ac | dBAG FEDF | EGed cBAc | BA^GB A2 Ac |
d2 Ac d2 Ac | dBAG FEDF | EGed cBAF | GECE D2 :|
|: Bc |
d2 df afbf | afec dBAd | B2 Bd AFDE | F2 E2 E2 Ac |
[1  dcde fdfg | afbf afec | B2 Bd AFEG | F2 D2 D2 :|
[2  d2 Ac d2 Ac | dBAG FEDF | EGed cBAF | GECE D2 ||
